X: 543
T: Nian gaomian
%%abc-version 2.0
%%abcx-abcm2ps-target-version 5.9.1 (29 Sep 2008)
%%abc-creator hum2abc beta
%%abcx-conversion-date 2013/10/02 07:52:30
%%abc-edited-by Helmut Schaffrath
%%humdrum-veritas 467585724
%%humdrum-veritas-data 1273655865
%%continueall 1
%%barnumbers 0
L: 1/8
M: 2/4
K: F
c2A G [I:setbarnb 1]| 
c2A G | 
A/ z/ G/ z/ A/ z/ G/ z/ | 
f d c A | 
G> F D F | 
G4 | 
c Ac2 | 
A c A c | 
G2G2 | 
E> D E G | 
C4 | 
G E G E | 
E/ E/ E/ D/C2 | 
G E G E | 
E/ E/ E/ D/C2 | 
G> A c e | 
d cG2 | 
E> D E3/ D/ | 
C3D | 
C DC2 |]  



